svgs/duotone/house-flag.svg

<svg xmlns="http://www.w3.org/2000/svg" viewBox="0 0 640 512"><!--! Font Awesome Pro 6.6.0 by @fontawesome - https://fontawesome.com License - https://fontawesome.com/license (Commercial License) Copyright 2024 Fonticons, Inc. --><path class="fa-secondary" style="fill:var(--fa-secondary-color,inherit);opacity:var(--fa-secondary-opacity,.4);" d="M2 267.1C6.6 279.7 18.6 288 32 288l32 0 0 192c0 17.7 14.3 32 32 32l64 0c17.7 0 32-14.3 32-32l0-96c0-17.7 14.3-32 32-32l64 0c17.7 0 32 14.3 32 32l0 96c0 17.7 14.3 32 32 32l64.7 0-.8 0 0-353L276.8 39.7c-6-5.1-13.4-7.7-20.8-7.7s-14.8 2.6-20.8 7.7l-224 192C1 240.4-2.7 254.5 2 267.1z"/><path class="fa-primary" style="fill:var(--fa-primary-color,inherit);opacity:var(--fa-primary-opacity,1);" d="M512 32c0-17.7-14.3-32-32-32s-32 14.3-32 32l0 160 0 320 64 0 0-320 112 0c8.8 0 16-7.2 16-16l0-128c0-8.8-7.2-16-16-16L512 32z"/></svg>

<svg xmlns="http://www.w3.org/2000/svg" viewBox="0 0 640 512"><!--! Font Awesome Pro 6.4.2 by @fontawesome - https://fontawesome.com License - https://fontawesome.com/license (Commercial License) Copyright 2023 Fonticons, Inc. --><path class="fa-primary" style="fill:var(--fa-primary-color,inherit);opacity:var(--fa-primary-opacity,1);" d="M512 32c0-17.7-14.3-32-32-32s-32 14.3-32 32V192 512h64V192H624c8.8 0 16-7.2 16-16V48c0-8.8-7.2-16-16-16H512z"/><path class="fa-secondary" style="fill:var(--fa-secondary-color,inherit);opacity:var(--fa-secondary-opacity,.4);" d="M416 159L276.8 39.7c-12-10.3-29.7-10.3-41.7 0l-224 192C1 240.4-2.7 254.5 2 267.1S18.6 288 32 288H64V480c0 17.7 14.3 32 32 32h64c17.7 0 32-14.3 32-32V384c0-17.7 14.3-32 32-32h64c17.7 0 32 14.3 32 32v96c0 17.7 14.3 32 32 32h64.8c.1 0 .1 0 .2 0h-1V159z"/></svg>
